packages/elements/bolt-icon/src/svgs/workforce-intelligence.svg

<svg enable-background="new 0 0 32 32" viewBox="0 0 32 32" xmlns="http://www.w3.org/2000/svg"><g clip-rule="evenodd" fill="#151619" fill-rule="evenodd"><path d="m30 18h-4.7l2 2h2.7v3c0 .7-.3 1-1 1h-26c-.7 0-1-.3-1-1v-3h7.7c-.7-.6-1.4-1.2-1.9-2h-5.8v-15c0-.7.3-1 1-1h26c.7 0 1 .3 1 1zm-18 12h8v-4h-8zm19.4-29.4c-.3-.4-.9-.6-1.4-.6h-28c-.5 0-1.1.2-1.4.6-.4.4-.6.9-.6 1.4v22c0 .5.2 1.1.6 1.4.4.4.9.6 1.4.6h8v4h-2v2h16v-2h-2v-4h8c.5 0 1.1-.2 1.4-.6.4-.4.6-.9.6-1.4v-22c0-.5-.2-1.1-.6-1.4z"/><path d="m15.5 18c-3 0-5.5-2.5-5.5-5.5s2.5-5.5 5.5-5.5 5.5 2.5 5.5 5.5-2.3 5.5-5.3 5.5c-.1 0-.1 0-.2 0m6-.9c1-1.3 1.6-2.9 1.6-4.6-.1-4.1-3.5-7.5-7.6-7.5s-7.5 3.3-7.5 7.5c0 4.1 3.3 7.5 7.5 7.5 1.7 0 3.3-.6 4.7-1.6l4.2 4.2c.2.2.4.3.7.3s.5-.1.7-.3c.4-.4.4-1 0-1.4z"/></g></svg>

<?xml version="1.0" encoding="utf-8"?>
<!-- Generator: Adobe Illustrator 25.2.0, SVG Export Plug-In . SVG Version: 6.00 Build 0)  -->
<svg version="1.1" id="Layer_1" xmlns="http://www.w3.org/2000/svg" xmlns:xlink="http://www.w3.org/1999/xlink" x="0px" y="0px"
	 viewBox="0 0 32 32" style="enable-background:new 0 0 32 32;" xml:space="preserve">
<style type="text/css">
	.st0{fill-rule:evenodd;clip-rule:evenodd;fill:#151619;}
</style>
<g>
	<path class="st0" d="M30,18h-4.7l2,2H30v3c0,0.7-0.3,1-1,1H3c-0.7,0-1-0.3-1-1v-3h7.7c-0.7-0.6-1.4-1.2-1.9-2H2V3c0-0.7,0.3-1,1-1
		h26c0.7,0,1,0.3,1,1V18z M12,30h8v-4h-8V30z M31.4,0.6C31.1,0.2,30.5,0,30,0H2C1.5,0,0.9,0.2,0.6,0.6C0.2,1,0,1.5,0,2v22
		c0,0.5,0.2,1.1,0.6,1.4C1,25.8,1.5,26,2,26h8v4H8v2h16v-2h-2v-4h8c0.5,0,1.1-0.2,1.4-0.6C31.8,25,32,24.5,32,24V2
		C32,1.5,31.8,0.9,31.4,0.6z"/>
	<path class="st0" d="M15.5,18c-3,0-5.5-2.5-5.5-5.5S12.5,7,15.5,7S21,9.5,21,12.5c0,3-2.3,5.5-5.3,5.5C15.6,18,15.6,18,15.5,18
		 M21.5,17.1c1-1.3,1.6-2.9,1.6-4.6C23,8.4,19.6,5,15.5,5C11.4,5,8,8.3,8,12.5c0,4.1,3.3,7.5,7.5,7.5c1.7,0,3.3-0.6,4.7-1.6l4.2,4.2
		c0.2,0.2,0.4,0.3,0.7,0.3c0.3,0,0.5-0.1,0.7-0.3c0.4-0.4,0.4-1,0-1.4L21.5,17.1z"/>
</g>
</svg>
